X: 2238
T: Aweebit Twisty
R: reel
M: 4/4
K: Gminor
Ac|BFDF B,FBd|fdbf dfBd|edcB AcGc|FGAB cedc|
BFDF B,FBd|fdbf dfBd|edcB Afef|1 ecAc B2:|
[2 ecAc B2fg|:dfBd bfdg|fdBd FBdf|edcB Afef|agfd ecAc|
BFDF EBGB|FAcA BcdB|edcB Afef|ecAc B2:|

